app/icons/harbour-books.svg

<?xml version="1.0" encoding="UTF-8" standalone="no"?>
<svg
   xmlns:svg="http://www.w3.org/2000/svg"
   xmlns="http://www.w3.org/2000/svg"
   xmlns:inkscape="http://www.inkscape.org/namespaces/inkscape"
   version="1.1"
   x="0px"
   y="0px"
   width="86px"
   height="86px"
   viewBox="0 0 86 86"
   enable-background="new 0 0 86 86"
   xml:space="preserve"
   inkscape:version="0.48.2 r9819">
   <rect
       y="0"
       x="0"
       style="opacity:0;fill:#ffffff"
       width="86"
       height="86"/>
   <g>
     <linearGradient
         id="SVGID_1_"
         gradientUnits="userSpaceOnUse"
         x1="79.2383"
         y1="91.3279"
         x2="6.7619"
         y2="18.8514">
       <stop
           offset="0"
           style="stop-color:#f5d9a8;stop-opacity:1;"/>
       <stop
           offset="1"
           style="stop-color:#cc9933;stop-opacity:1;"/>
     </linearGradient>
     <path
         fill="url(#SVGID_1_)"
         d="M43,0.3C19.417,0.3,0.3,19.418,0.3,43c0,0.408,0,41.277,0,41.277c0,0.786,0.637,1.423,1.423,1.423   h82.553c0.786,0,1.423-0.637,1.423-1.423c0,0,0-40.908,0-41.277C85.7,19.418,66.583,0.3,43,0.3z"/>
   </g>
   <path
       inkscape:connector-curvature="0"
       d="m 65.244239,25.145325 2.755924,0 0,52.854675 -39.567187,0 C 22.625852,78 17.999837,73.964541 17.999837,67.960564 l 0,-45.768014 c 0,-3.248053 2.657498,-5.90555 5.905551,-5.90555 l 36.614411,0 0,45.374311 -32.086823,0 c -4.035459,0 -6.889809,2.165368 -6.889809,6.102402 l 0,0.196851 c 0,3.937034 2.85435,6.496106 6.889809,6.496106 l 36.811263,0 0,-49.311345 z m -4.72444,44.193201 -31.69312,0 c -0.885832,0 -1.673239,-0.492128 -1.673239,-1.476387 0,-0.787407 0.787407,-1.279537 1.673239,-1.279537 l 31.69312,0 0,2.755924 z"
       style="fill:#cc0000;fill-opacity:1"/>
 </svg>

<?xml version="1.0" encoding="UTF-8"?>
<!-- Generated by Pixelmator Pro 3.4.3 -->
<svg width="86" height="86" viewBox="0 0 86 86" xmlns="http://www.w3.org/2000/svg">
    <path id="path1" fill="#ffffff" stroke="none" opacity="0" d="M 0 0 L 86 0 L 86 86 L 0 86 Z"/>
    <g id="g1">
        <linearGradient id="linearGradient1" x1="79.238723" y1="91.3279" x2="6.761477" y2="18.8514" gradientUnits="userSpaceOnUse">
            <stop offset="1e-05" stop-color="#f5d9a8" stop-opacity="1"/>
            <stop offset="1" stop-color="#cc9933" stop-opacity="1"/>
        </linearGradient>
        <path id="---" fill="url(#linearGradient1)" fill-rule="evenodd" stroke="none" d="M 0.299502 69.699997 C 0.299502 78.536552 7.462946 85.699997 16.299501 85.699997 L 69.699493 85.699997 C 78.536049 85.699997 85.699493 78.536552 85.699493 69.699997 L 85.699493 16.300003 C 85.699493 7.463448 78.536049 0.300003 69.699493 0.300003 L 16.299501 0.300003 C 7.462946 0.300003 0.299502 7.463448 0.299502 16.300003 Z"/>
    </g>
    <path id="path2" fill="#cc0000" stroke="none" d="M 65.24424 25.145325 L 68.00016 25.145325 L 68.00016 78 L 28.432976 78 C 22.625853 78 17.999838 73.964539 17.999838 67.960564 L 17.999838 22.192551 C 17.999838 18.944496 20.657335 16.287003 23.905388 16.287003 L 60.519798 16.287003 L 60.519798 61.661312 L 28.432976 61.661312 C 24.397516 61.661312 21.543167 63.826679 21.543167 67.76371 L 21.543167 67.960564 C 21.543167 71.897598 24.397516 74.456673 28.432976 74.456673 L 65.24424 74.456673 L 65.24424 25.145325 Z M 60.519798 69.338524 L 28.826679 69.338524 C 27.940847 69.338524 27.15344 68.846397 27.15344 67.862137 C 27.15344 67.07473 27.940847 66.582603 28.826679 66.582603 L 60.519798 66.582603 L 60.519798 69.338524 Z"/>
</svg>
